X:1
T:Title
%%score { ( 1 3 5 ) | ( 2 4 ) }
L:1/8
Q:1/4=132
M:3/4
K:F
V:1 bass nm="Piano, Still" snm="Pno."
V:3 bass 
V:5 bass 
V:2 bass 
V:4 bass 
V:1
 F,,2 A,2 A,2 | F,,2 A,2 A,2 | F,,2 A,2 A,2 | F,,2 A,2 A,2 | C6 | A6 | A2 B2 c2 | B2 A2 z G | %8
 A2 B2 c2 | B2 A2 G2 | A6 | G2[K:bass] A,2 A,2 | C6 | A6 | A2 B2 c2 | B2 A2 z G | A2 B2 c2 | %17
 B2 A2 G2 | A6 | G2 A,2 A,2 | z2 [G,B,]2 [G,B,]2 | [Bd]2 [GBd]2 [GBc]2 | [FGAc]6[K:bass] | %23
 c2 B2 A2 | A6[K:bass] | [Dc]2 [DB]2 [DA]2 | [EA]6[K:bass] | [EG]6 | z2[K:treble] [G,B,]2 [G,B,]2 | %29
 [Bd]2 [GBd]2 [GBc]2 | [FGAc]6[K:bass] | c2 B2 A2 | A6[K:bass] | D,,2 F,2 F,2 | [CA]6 | [CG]6 | %36
 B,2 F2 F2 | B,2 F2 F2 | A,2 F2 F2 | A,2 F2 F2 | G,2 D2 F2 | G,2 F2 F2 | %42
 F,2 [F,A,CF]2[K:treble] [F,A,CF]2 | [A,CF]2 G,2 A,2 | B,2 F2 F2 | B,2 F2 F2 | A,2 F2 F2 | %47
 A,2 F2 F2 | G,2 D2 F2 | G,2 F2 F2 | z2 [A,CF]4 | [A,CF]6 | C6 | A6 | A2 B2 c2 | B2 A2 z G | %56
 A2 B2 c2 | B2 A2 G2 | A6 | G2[K:bass] A,2 A,2 | C6 | A6 | A2 B2 c2 | B2 A2 z G | A2 B2 c2 | %65
 B2 A2 G2 | A6 | G2[K:bass] A,2 A,2 | F,,2 F,2 F,2 | F,,2 F,2 F,2 | F,,2 F,2 F,2 | %71
 z2[K:treble] A2 c2 | z2 f4 | z2 A2 c2 | z2 f4 | z2 B2 d2 | z2 f4- | f2 z2 z2 | d6 | z2 d2 e2 | %80
 f6 | d2 A2 B2 | c6 | A4 F2 | G6- | G2 D2 F2 | G6- | G6 | C2 F4 | B,2 F2 F2 | A,2 F2 F2 | %91
 A,2 F2 F2 | G,2 F4 | G,2 F2 F2 | F,,2[K:treble] F2 F2 | F6 |] %96
V:2
 z2 F,2 F,2 | z2 F,2 F,2 | z2 F,2 F,2 | z2 F,2 F,2 | F,,2 F,2 F,2 | F,,2 F,2 F,2 | %6
 G,,2 [G,B,]2 [G,B,]2 | G,,2 [G,B,]2 G,2 | B,,2 [B,D]2 [B,D]2 | B,,2 [B,D]2 [B,D]2 | F,,2 F,2 F,2 | %11
 C,,2 F,2 F,2 | F,,2 F,2 F,2 | F,,2 F,2 F,2 | A,,2 [G,B,]2 [G,B,]2 | F,,2 [G,B,]2 G,2 | %16
 B,,2 [B,D]2 [B,D]2 | B,,2 [B,D]2 [B,D]2 | F,,2 F,2 F,2 | C,,2 F,2 F,2 | G,,2 D,2 D,2 | %21
 F,,2 [D,G,B,]2 [D,G,B,]2 | F,,2 C,2 C,2 | F,,2 [C,F,A,]2 [C,F,A,]2 | D,,2 A,,2 A,,2 | %25
 D,,2 [A,,D,F,]2 [A,,D,F,]2 | C,,2 F,,2 z2 | C,,2 G,,2 G,,2 | G,,2 D,2 D,2 | %29
 G,,2 [D,G,B,]2 [D,G,B,]2 | F,,2 C,2 z G | F,,2 [C,F,A,]2 [C,F,A,]2 | D,,2 [A,,D,]2 [A,,D,]2 | %33
 z2 [A,,D,]2 [A,,D,]2 | C,,2 G,,2 G,,2 | C,,6 | B,,2 [F,A,D]2 [F,A,D]2 | B,,2 [F,A,D]2 [F,A,D]2 | %38
 A,,2 [F,A,C]2 [F,A,C]2 | A,,2 [F,A,C]2 [F,A,C]2 | G,,2 [D,F,B,]2 [D,F,B,D]2 | %41
 G,,2 [D,F,B,D]2 [D,F,B,D]2 | F,,2 C,2 C,2 | F,,2 G,,2 A,,2 | B,,2 [D,F,D]2 [D,F,D]2 | %45
 B,,2 [D,F,D]2 [D,F,D]2 | A,,2 [C,F,C]2 [C,F,C]2 | A,,2 [C,F,C]2 [C,F,C]2 | %48
 G,,2 [D,F,B,]2 [D,F,B,D]2 | G,,2 [D,F,B,D]2 [D,F,B,D]2 | F,,2 C,2 C,2 | F,,2 z2 z2 | %52
 F,,2 F,2 F,2 | F,,2 F,2 F,2 | G,,2 [G,B,]2 [G,B,]2 | G,,2 [G,B,]2 G,2 | B,,2 [B,D]2 [B,D]2 | %57
 B,,2 [B,D]2 [B,D]2 | F,,2 F,2 F,2 | C,,2 F,2 F,2 | F,,2 F,2 F,2 | F,,2 F,2 F,2 | %62
 A,,2 [G,B,]2 [G,B,]2 | F,,2 [G,B,]2 G,2 | B,,2 [B,D]2 [B,D]2 | B,,2 [B,D]2 [B,D]2 | F,,2 F,2 F,2 | %67
 C,,2 F,2 F,2 | z2 C,2 C,2 | z2 C,2 C,2 | z2 C,2 C,2 | [F,,C,]6 | F,,2 [F,A,]2 F,2 | z6 | %74
 B,,2 [F,B,]2 F,2 | D,6 | F,,2 [F,A,]2 F,2 | F,6 | [F,B,]6 | F,6 | F,2 F,,2 B,,2 | D,2 F,,2 B,,2 | %82
 C,2 F,,2 A,,2 | C,2 F,,2 A,,2 | G,,2 B,,2 D,2 | G,,2 B,,2 D,2 | E,,2 G,,2 C,2 | C,,6 | %88
 B,,2 [D,F,D]4 | B,,2 [D,F,D]2 [D,F,D]2 | A,,2 [C,F,C]2 [C,F,C]2 | A,,2 [C,F,C]2 [C,F,C]2 | %92
 G,,2 [D,F,D]4 | z2 B,2 B,2 | z2 [C,F,A,C]2 [C,F,A,C]2 | [C,F,A,C]6 |] %96
V:3
 x6 | x6 | x6 | x6 | z2 A,2 A,2 | z2 A,2 A,2 | x6 | z2 z2 B,2 | x6 | x6 | z2 A,2 A,2 | %11
 x2[K:bass] x4 | z2 A,2 A,2 | z2 A,2 A,2 | x6 | z2 z2 B,2 | x6 | x6 | z2 A,2 A,2 | x6 | x6 | x6 | %22
 z2[K:bass] [F,A,]2 [F,A,]2 | x6 | z2[K:bass] [D,F,]2 [D,F,]2 | x6 | z2[K:bass] [C,E,]2 z2 | %27
 z2 [C,E,]2 [C,E,]2 | x2[K:treble] x4 | x6 | z2[K:bass] [F,A,]2 [F,A,]2 | x6 | z2[K:bass] F,2 F,2 | %33
 x6 | z2 [C,E,]2 [C,E,]2 | x6 | x6 | x6 | x6 | x6 | x6 | x6 | x4[K:treble] x2 | x6 | x6 | x6 | x6 | %47
 x6 | x6 | x6 | F,2 F,2 F,2 | x6 | z2 A,2 A,2 | z2 A,2 A,2 | x6 | z2 z2 B,2 | x6 | x6 | %58
 z2 A,2 A,2 | x2[K:bass] x4 | z2 A,2 A,2 | z2 A,2 A,2 | x6 | z2 z2 B,2 | x6 | x6 | z2 A,2 A,2 | %67
 x2[K:bass] x4 | x6 | x6 | x6 | F,6[K:treble] | e2 z2 A,2 | x6 | e2 z2 B,2 | F,6 | e2 z2 A,2 | %77
 z2 c4 | x6 | B,6 | x6 | x6 | x6 | x6 | x6 | x6 | x6 | x6 | x6 | x6 | x6 | x6 | x6 | x6 | %94
 x2[K:treble] x4 | x6 |] %96
V:4
 x6 | x6 | x6 | x6 | x6 | x6 | x6 | x6 | x6 | x6 | x6 | x6 | x6 | x6 | x6 | x6 | x6 | x6 | x6 | %19
 x6 | x6 | x6 | x6 | x6 | x6 | x6 | x6 | x6 | x6 | x6 | z2 z2 C,2 | x6 | x6 | x6 | x6 | x6 | x6 | %37
 x6 | x6 | x6 | x6 | x6 | x6 | x6 | x6 | x6 | x6 | x6 | x6 | x6 | x6 | x6 | x6 | x6 | x6 | x6 | %56
 x6 | x6 | x6 | x6 | x6 | x6 | x6 | x6 | x6 | x6 | x6 | x6 | x6 | x6 | x6 | x6 | x6 | x6 | x6 | %75
 x6 | x6 | x6 | x6 | x6 | x6 | x6 | x6 | x6 | x6 | x6 | x6 | x6 | x6 | x6 | x6 | x6 | x6 | x6 | %94
 x6 | x6 |] %96
V:5
 x6 | x6 | x6 | x6 | x6 | x6 | x6 | x6 | x6 | x6 | x6 | x2[K:bass] x4 | x6 | x6 | x6 | x6 | x6 | %17
 x6 | x6 | x6 | x6 | x6 | x2[K:bass] x4 | x6 | x2[K:bass] x4 | x6 | x2[K:bass] x4 | x6 | %28
 x2[K:treble] x4 | x6 | x2[K:bass] x4 | x6 | x2[K:bass] x4 | x6 | x6 | x6 | x6 | x6 | x6 | x6 | %40
 x6 | x6 | x4[K:treble] x2 | x6 | x6 | x6 | x6 | x6 | x6 | x6 | x6 | x6 | x6 | x6 | x6 | x6 | x6 | %57
 x6 | x6 | x2[K:bass] x4 | x6 | x6 | x6 | x6 | x6 | x6 | x6 | x2[K:bass] x4 | x6 | x6 | x6 | %71
 x2[K:treble] x4 | x6 | x6 | x6 | x6 | x6 | A,6 | x6 | x6 | x6 | x6 | x6 | x6 | x6 | x6 | x6 | x6 | %88
 x6 | x6 | x6 | x6 | x6 | x6 | x2[K:treble] x4 | x6 |] %96

